**kern	**kern	**dynam
*part1	*part1	*part1
*staff2	*staff1	*
*I"Piano	*	*
*clefF4	*clefG2	*
*k[]	*k[]	*
=1	=1	=1
2CC 2C	2c 2cc	sf
2DD 2D	2d 2dd	sf
=	=	=
2.GGG; 2.GG	2.G; 2.g	sf
4EE-X 4BB-X 4E-X	4G 4B-X 4e-X 4g	pp
=	=	=
4EE-X 4BB-X 4E-X	(4G' 4B-X 4e-X 4g	.
4EE- 4BB- 4E-	4G' 4B- 4e- 4g	pp
4EE- 4BB- 4E-	4G' 4B- 4e- 4g	.
4EE- 4BB- 4E-	4G') 4B- 4e- 4g	.
=	=	=
4EE-X 4BB-X 4E-X	4G 4B-X 4e-X 4g	pp
4EE- 4BB- 4E-	4G 4B- 4e- 4g	pp
4EE- 4BB- 4E-	4G 4B- 4e- 4g	.
4EE- 4BB- 4E-	4G 4B- 4e- 4g	.
=	=	=
4EE-X 4BB-X 4E-X	4G 4B-X 4e-X 4g	pp
4EE- 4BB- 4E-	4G 4B- 4e- 4g	pp
4EE- 4BB- 4E-	4G 4B- 4e- 4g	.
4EE- 4BB- 4E-	4G 4B- 4e- 4g	.
=	=	=
4EE-X 4BB-X 4E-X	4G 4B-X 4e-X 4g	pp
4EE- 4BB- 4E-	4G 4B- 4e- 4g	pp
4EE- 4BB- 4E-	4G 4B- 4e- 4g	.
4EE- 4BB- 4E-	4G 4B- 4e- 4g	.
=	=	=
4DD 4GG 4D	4G 4Bn 4f 4g	pp
4DD 4GG 4D	4G 4B 4f 4g	pp
4DD 4GG 4D	4G 4B 4f 4g	.
4DD 4GG 4D	4G 4B 4f 4g	.
=	=	=
4DD 4GG 4D	4G 4B 4f 4g	pp
4DD 4GG 4D	4G 4B 4f 4g	pp
4DD 4GG 4D	4G 4B 4f 4g	.
4DD 4GG 4D	4G 4B 4f 4g	.
=	=	=
*-	*-	*-
!!!system-decoration: {(s1,s2)}
